; generated by PrusaSlicer 2.4.0+win64 on 2022-02-10 at 21:15:54 UTC

; 

; external perimeters extrusion width = 0.45mm
; perimeters extrusion width = 0.45mm
; infill extrusion width = 0.45mm
; solid infill extrusion width = 0.45mm
; top infill extrusion width = 0.40mm
; first layer extrusion width = 0.42mm

M73 P0 R117
M73 Q0 S117
M201 X1000 Y1000 Z200 E5000 ; sets maximum accelerations, mm/sec^2
M203 X200 Y200 Z12 E120 ; sets maximum feedrates, mm/sec
M204 P1250 R1250 T1250 ; sets acceleration (P, T) and retract acceleration (R), mm/sec^2
M205 X8.00 Y8.00 Z0.40 E4.50 ; sets the jerk limits, mm/sec
M205 S0 T0 ; sets the minimum extruding and travel feed rate, mm/sec
M107
;TYPE:Custom
M862.3 P "MK3S" ; printer model check
M862.1 P0.4 ; nozzle diameter check
M115 U3.10.0 ; tell printer latest fw version
G90 ; use absolute coordinates
M83 ; extruder relative mode
M104 S215 ; set extruder temp
M140 S60 ; set bed temp
M190 S60 ; wait for bed temp
M109 S215 ; wait for extruder temp
G28 W ; home all without mesh bed level
G80 ; mesh bed leveling
G1 Z0.2 F720
G1 Y-3 F1000 ; go outside print area
G92 E0
G1 X60 E9 F1000 ; intro line
G1 X100 E12.5 F1000 ; intro line
G92 E0
M221 S95

; Don't change E values below. Excessive value can damage the printer.
M907 E430 ; set extruder motor current
G21 ; set units to millimeters
G90 ; use absolute coordinates
M83 ; use relative distances for extrusion
M900 K0.05 ; Filament gcode LA 1.5
M900 K30 ; Filament gcode LA 1.0
M107
;LAYER_CHANGE
;Z:0.2
;HEIGHT:0.2
;BEFORE_LAYER_CHANGE
G92 E0.0
;0.2


G1 E-.8 F2100
G1 Z.4 F720
;AFTER_LAYER_CHANGE
;0.2
G1 X114.964 Y96.496 F10800
G1 Z.2 F720
G1 E.8 F2100
M204 S800
;TYPE:Skirt/Brim
;WIDTH:0.42
G1 F1200
G1 X115.861 Y95.539 E.04112
G1 X116.848 Y94.676 E.04112
G1 X117.917 Y93.916 E.04112
G1 X119.056 Y93.266 E.04112
G1 X120.253 Y92.732 E.04112
G1 X121.499 Y92.32 E.04112
G1 X122.653 Y92.057 E.03714
G1 X123.954 Y91.887 E.04112
G1 X125.264 Y91.848 E.04112
G1 X126.572 Y91.94 E.04109
G1 X127.865 Y92.162 E.04115
G1 X129.129 Y92.511 E.04112
G1 X130.352 Y92.984 E.04112
G1 X131.522 Y93.576 E.04112
G1 X132.627 Y94.283 E.04112
G1 X133.656 Y95.095 E.04112
G1 X134.552 Y95.957 E.03897
G1 X135.942 Y97.7 E.06991
G1 X136.583 Y98.765 E.03896
G1 X137.172 Y100.013 E.04327
G1 X137.588 Y101.183 E.03897
G1 X137.906 Y102.456 E.04112
G1 X138.095 Y103.754 E.04112
G1 X138.153 Y105.132 E.04327
G1 X138.082 Y106.373 E.03897
G1 X137.881 Y107.669 E.04112
G1 X137.551 Y108.938 E.04112
G1 X137.096 Y110.168 E.04112
G1 X136.522 Y111.347 E.04112
G1 X135.833 Y112.463 E.04112
G1 X135.036 Y113.504 E.04112
G1 X134.139 Y114.461 E.04112
G1 X133.152 Y115.324 E.04111
G1 X132.083 Y116.084 E.04112
G1 X131.058 Y116.676 E.03713
G1 X129.865 Y117.222 E.04112
G1 X128.624 Y117.645 E.04112
G1 X127.347 Y117.943 E.04112
G1 X126.046 Y118.113 E.04112
G1 X124.736 Y118.152 E.04112
G1 X123.428 Y118.06 E.04112
G1 X122.133 Y117.838 E.04119
G1 X120.871 Y117.489 E.04105
G1 X119.648 Y117.016 E.04112
G1 X118.478 Y116.424 E.04112
G1 X117.373 Y115.717 E.04112
G1 X116.344 Y114.905 E.04112
G1 X115.448 Y114.043 E.03897
G1 X114.058 Y112.3 E.06991
G1 X113.417 Y111.235 E.03897
G1 X112.828 Y109.987 E.04327
G1 X112.412 Y108.817 E.03896
G1 X112.094 Y107.544 E.04112
G1 X111.905 Y106.246 E.04112
G1 X111.847 Y104.868 E.04327
G1 X111.918 Y103.627 E.03896
G1 X112.119 Y102.331 E.04112
G1 X112.449 Y101.062 E.04112
G1 X112.904 Y99.832 E.04112
G1 X113.478 Y98.653 E.04112
G1 X114.167 Y97.537 E.04112
G1 X114.928 Y96.544 E.03924
M204 S1000
G1 X115.227 Y96.773 F10800
M204 S800
G1 F1200
G1 X116.124 Y95.809 E.04128
G1 X117.083 Y94.971 E.03994
G1 X118.121 Y94.232 E.03994
G1 X119.228 Y93.601 E.03994
G1 X120.391 Y93.083 E.03994
G1 X121.601 Y92.683 E.03994
G1 X122.719 Y92.428 E.03596
G1 X123.982 Y92.263 E.03994
G1 X125.255 Y92.225 E.03994
G1 X126.525 Y92.314 E.03991
G1 X127.781 Y92.529 E.03997
G1 X129.009 Y92.868 E.03994
G1 X130.197 Y93.328 E.03994
G1 X131.333 Y93.903 E.03994
G1 X132.407 Y94.589 E.03994
G1 X133.407 Y95.378 E.03994
G1 X134.282 Y96.22 E.03808
G1 X135.625 Y97.904 E.06755
G1 X136.251 Y98.945 E.03808
G1 X136.821 Y100.15 E.04179
G1 X137.228 Y101.295 E.03808
G1 X137.536 Y102.531 E.03994
G1 X137.72 Y103.791 E.03994
G1 X137.776 Y105.123 E.04179
G1 X137.707 Y106.335 E.03808
G1 X137.511 Y107.594 E.03994
G1 X137.191 Y108.827 E.03994
G1 X136.749 Y110.022 E.03994
G1 X136.191 Y111.167 E.03994
G1 X135.521 Y112.25 E.03994
G1 X134.747 Y113.262 E.03994
G1 X133.876 Y114.191 E.03994
G1 X132.917 Y115.029 E.03994
G1 X131.879 Y115.768 E.03994
G1 X130.886 Y116.341 E.03596
G1 X129.727 Y116.871 E.03994
G1 X128.522 Y117.282 E.03994
G1 X127.281 Y117.572 E.03994
G1 X126.018 Y117.737 E.03994
G1 X124.745 Y117.775 E.03994
M73 P0 R116
G1 X123.474 Y117.686 E.03994
G1 X122.217 Y117.47 E.04001
G1 X120.991 Y117.132 E.03987
G1 X119.803 Y116.672 E.03994
G1 X118.667 Y116.097 E.03994
G1 X117.593 Y115.411 E.03994
G1 X116.593 Y114.622 E.03994
G1 X115.718 Y113.78 E.03808
G1 X114.375 Y112.096 E.06756
G1 X113.749 Y111.055 E.03808
G1 X113.179 Y109.85 E.04179
G1 X112.772 Y108.705 E.03808
G1 X112.464 Y107.469 E.03994
G1 X112.28 Y106.209 E.03994
G1 X112.224 Y104.877 E.04179
G1 X112.293 Y103.665 E.03808
G1 X112.489 Y102.406 E.03994
G1 X112.809 Y101.173 E.03994
G1 X113.251 Y99.978 E.03994
G1 X113.809 Y98.834 E.03994
G1 X114.479 Y97.75 E.03994
G1 X115.19 Y96.82 E.03671
M204 S1000
;WIPE_START
G1 F8640
G1 X116.124 Y95.809 E-.31782
G1 X117.083 Y94.971 E-.29411
G1 X117.606 Y94.599 E-.14807
;WIPE_END
G1 E-.04 F2100
G1 Z.6 F720
G1 X117.289 Y98.463 F10800
G1 Z.2 F720
G1 E.8 F2100
M204 S800
G1 F1200
G1 X118.054 Y97.649 E.03503
G1 X118.818 Y96.996 E.03152
G1 X119.649 Y96.418 E.03171
G1 X120.53 Y95.928 E.03162
G1 X121.456 Y95.528 E.03161
G1 X122.416 Y95.222 E.03161
G1 X123.403 Y95.014 E.03161
G1 X124.405 Y94.904 E.03161
G1 X125.412 Y94.895 E.03157
G1 X126.392 Y94.983 E.03087
G1 X127.359 Y95.166 E.03083
G1 X128.322 Y95.448 E.03148
G1 X129.236 Y95.817 E.03091
G1 X130.126 Y96.282 E.03149
G1 X130.949 Y96.822 E.03085
G1 X131.717 Y97.439 E.03089
G1 X132.433 Y98.142 E.03145
G1 X133.065 Y98.897 E.03088
G1 X133.619 Y99.71 E.03084
G1 X134.101 Y100.59 E.03145
G1 X134.487 Y101.497 E.03093
G1 X134.788 Y102.456 E.03149
G1 X134.989 Y103.419 E.03084
G1 X135.096 Y104.416 E.03146
G1 X135.105 Y105.402 E.03092
G1 X135.018 Y106.386 E.03096
G1 X134.835 Y107.357 E.03101
G1 X134.557 Y108.307 E.03102
G1 X134.188 Y109.224 E.03099
G1 X133.793 Y109.994 E.02715
G1 X133.264 Y110.829 E.03099
G1 X132.643 Y111.623 E.03161
G1 X131.945 Y112.351 E.03161
G1 X131.179 Y113.006 E.03161
G1 X130.351 Y113.582 E.03161
G1 X129.47 Y114.072 E.03161
G1 X128.544 Y114.472 E.03161
G1 X127.584 Y114.778 E.03161
G1 X126.597 Y114.986 E.03161
G1 X125.595 Y115.096 E.03161
G1 X124.587 Y115.105 E.0316
G1 X123.587 Y115.014 E.03149
G1 X122.62 Y114.829 E.03087
G1 X121.658 Y114.545 E.03145
G1 X120.744 Y114.174 E.03092
G1 X119.856 Y113.707 E.03148
G1 X119.034 Y113.166 E.03084
G1 X118.256 Y112.536 E.0314
M73 Q0 S116
G1 X117.554 Y111.844 E.03088
G1 X116.923 Y111.086 E.03093
G1 X116.37 Y110.273 E.03083
G1 X115.889 Y109.39 E.03152
G1 X115.505 Y108.482 E.0309
G1 X115.207 Y107.524 E.03147
G1 X115.008 Y106.56 E.03086
G1 X114.904 Y105.583 E.03081
G1 X114.895 Y104.579 E.03149
G1 X114.985 Y103.595 E.03098
G1 X115.17 Y102.624 E.03099
G1 X115.443 Y101.693 E.03042
G1 X115.812 Y100.776 E.03099
G1 X116.207 Y100.006 E.02715
G1 X116.736 Y99.171 E.03099
G1 X117.252 Y98.511 E.02628
M204 S1000
G1 X117.549 Y98.742 F10800
M204 S800
G1 F1200
G1 X118.307 Y97.929 E.03485
G1 X119.042 Y97.3 E.03035
G1 X119.841 Y96.743 E.03053
G1 X120.689 Y96.27 E.03044
G1 X121.579 Y95.884 E.03043
G1 X122.504 Y95.589 E.03043
G1 X123.454 Y95.387 E.03043
G1 X124.418 Y95.281 E.03043
G1 X125.388 Y95.272 E.03041
G1 X126.332 Y95.355 E.02971
G1 X127.262 Y95.53 E.02967
G1 X128.19 Y95.801 E.03032
G1 X129.07 Y96.155 E.02974
G1 X129.928 Y96.603 E.03033
G1 X130.72 Y97.121 E.0297
G1 X131.46 Y97.715 E.02974
G1 X132.15 Y98.391 E.03029
G1 X132.759 Y99.118 E.02973
G1 X133.293 Y99.899 E.02968
G1 X133.758 Y100.746 E.03029
G1 X134.13 Y101.62 E.02977
G1 X134.421 Y102.542 E.03033
G1 X134.615 Y103.469 E.02968
G1 X134.719 Y104.429 E.0303
G1 X134.729 Y105.378 E.02976
G1 X134.646 Y106.325 E.0298
G1 X134.47 Y107.261 E.02984
G1 X134.198 Y108.192 E.03042
G1 X133.842 Y109.075 E.02985
G1 X133.47 Y109.8 E.02556
G1 X132.961 Y110.605 E.02985
G1 X132.364 Y111.37 E.03043
G1 X131.693 Y112.071 E.03043
G1 X130.955 Y112.702 E.03043
G1 X130.159 Y113.257 E.03043
G1 X129.311 Y113.73 E.03043
G1 X128.42 Y114.116 E.03043
G1 X127.496 Y114.411 E.03043
G1 X126.546 Y114.613 E.03043
G1 X125.582 Y114.719 E.03043
G1 X124.611 Y114.728 E.03042
G1 X123.648 Y114.642 E.03032
G1 X122.718 Y114.465 E.0297
G1 X121.791 Y114.192 E.03029
G1 X120.911 Y113.836 E.02976
G1 X120.055 Y113.387 E.03032
G1 X119.264 Y112.867 E.02968
G1 X118.513 Y112.261 E.03024
G1 X117.838 Y111.595 E.02973
G1 X117.229 Y110.866 E.02978
G1 X116.697 Y110.084 E.02968
G1 X116.233 Y109.234 E.03036
G1 X115.862 Y108.361 E.02974
G1 X115.574 Y107.438 E.03031
G1 X115.382 Y106.51 E.0297
G1 X115.281 Y105.57 E.02965
G1 X115.272 Y104.603 E.03032
G1 X115.357 Y103.656 E.02982
G1 X115.534 Y102.721 E.02983
G1 X115.802 Y101.808 E.02984
G1 X116.158 Y100.925 E.02985
G1 X116.53 Y100.2 E.02556
G1 X117.039 Y99.395 E.02985
G1 X117.512 Y98.79 E.02409
M204 S1000
G1 X117.809 Y99.021 F10800
M204 S800
G1 F1200
G1 X117.916 Y98.884 E.00546
G1 X118.56 Y98.209 E.02924
G1 X119.266 Y97.603 E.02917
G1 X120.033 Y97.068 E.02935
G1 X120.848 Y96.612 E.02926
G1 X121.704 Y96.241 E.02925
G1 X122.592 Y95.956 E.02925
G1 X123.505 Y95.761 E.02926
G1 X124.432 Y95.658 E.02925
G1 X125.364 Y95.648 E.02924
G1 X126.272 Y95.728 E.02856
G1 X127.166 Y95.895 E.02851
G1 X128.058 Y96.155 E.02915
G1 X128.904 Y96.494 E.02858
G1 X129.729 Y96.924 E.02916
G1 X130.492 Y97.421 E.02854
G1 X131.203 Y97.992 E.02858
G1 X131.867 Y98.641 E.02912
G1 X132.453 Y99.339 E.02858
G1 X132.967 Y100.089 E.02852
G1 X133.415 Y100.903 E.02913
G1 X133.774 Y101.742 E.0286
G1 X134.054 Y102.629 E.02917
G1 X134.241 Y103.519 E.02852
G1 X134.342 Y104.443 E.02914
G1 X134.352 Y105.355 E.02859
G1 X134.271 Y106.283 E.02921
G1 X134.101 Y107.181 E.02867
G1 X133.839 Y108.077 E.02925
G1 X133.495 Y108.925 E.0287
G1 X133.146 Y109.606 E.02399
G1 X132.658 Y110.381 E.0287
G1 X132.084 Y111.116 E.02925
G1 X131.44 Y111.791 E.02925
G1 X130.732 Y112.399 E.02925
G1 X129.967 Y112.933 E.02926
G1 X129.152 Y113.388 E.02925
G1 X128.296 Y113.759 E.02925
G1 X127.408 Y114.044 E.02925
G1 X126.495 Y114.239 E.02925
G1 X125.568 Y114.342 E.02925
G1 X124.635 Y114.352 E.02925
G1 X123.709 Y114.27 E.02915
G1 X122.815 Y114.1 E.02854
G1 X121.923 Y113.839 E.02913
G1 X121.078 Y113.497 E.02859
G1 X120.254 Y113.066 E.02915
G1 X119.493 Y112.567 E.02852
G1 X118.771 Y111.985 E.02908
G1 X118.121 Y111.346 E.02857
G1 X117.536 Y110.646 E.02863
G1 X117.023 Y109.895 E.02851
G1 X116.576 Y109.078 E.02919
G1 X116.219 Y108.239 E.02858
G1 X115.941 Y107.352 E.02915
G1 X115.756 Y106.46 E.02855
G1 X115.657 Y105.557 E.02849
G1 X115.648 Y104.627 E.02916
G1 X115.729 Y103.717 E.02866
G1 X115.899 Y102.818 E.02866
G1 X116.161 Y101.923 E.02925
G1 X116.505 Y101.075 E.0287
G1 X116.854 Y100.394 E.02399
G1 X117.342 Y99.62 E.0287
G1 X117.772 Y99.068 E.02191
M204 S1000
G1 X118.069 Y99.3 F10800
M204 S800
G1 F1200
G1 X118.195 Y99.137 E.00646
G1 X118.813 Y98.489 E.02806
G1 X119.49 Y97.907 E.02799
G1 X120.226 Y97.392 E.02817
G1 X121.007 Y96.954 E.02808
G1 X121.828 Y96.597 E.02808
G1 X122.681 Y96.323 E.02807
G1 X123.556 Y96.135 E.02808
G1 X124.446 Y96.035 E.02808
G1 X125.341 Y96.024 E.02807
G1 X126.212 Y96.1 E.0274
G1 X127.07 Y96.26 E.02736
G1 X127.927 Y96.508 E.02799
G1 X128.739 Y96.833 E.02742
G1 X129.531 Y97.245 E.028
G1 X130.263 Y97.722 E.02739
G1 X130.946 Y98.268 E.02742
G1 X131.584 Y98.891 E.02796
G1 X132.147 Y99.56 E.02742
G1 X132.642 Y100.28 E.02736
G1 X133.072 Y101.061 E.02796
G1 X133.417 Y101.865 E.02744
G1 X133.687 Y102.717 E.02801
G1 X133.867 Y103.57 E.02735
G1 X133.966 Y104.457 E.02797
G1 X133.976 Y105.332 E.02743
G1 X133.898 Y106.222 E.02804
G1 X133.733 Y107.102 E.02808
G1 X133.48 Y107.961 E.02807
G1 X133.149 Y108.776 E.02756
G1 X132.823 Y109.412 E.02243
G1 X132.354 Y110.156 E.02756
G1 X131.804 Y110.863 E.02807
G1 X131.187 Y111.511 E.02808
G1 X130.508 Y112.095 E.02808
G1 X129.774 Y112.608 E.02808
G1 X128.993 Y113.046 E.02808
G1 X128.172 Y113.403 E.02808
G1 X127.319 Y113.677 E.02807
G1 X126.444 Y113.865 E.02808
G1 X125.554 Y113.965 E.02808
G1 X124.659 Y113.976 E.02807
G1 X123.77 Y113.897 E.02799
G1 X122.911 Y113.736 E.02738
G1 X122.055 Y113.486 E.02796
G1 X121.244 Y113.159 E.02743
G1 X120.452 Y112.746 E.02799
G1 X119.722 Y112.268 E.02736
G1 X119.028 Y111.709 E.02792
G1 X118.404 Y111.097 E.02742
G1 X117.841 Y110.425 E.02748
G1 X117.349 Y109.705 E.02736
G1 X116.919 Y108.921 E.02803
G1 X116.576 Y108.117 E.02741
G1 X116.308 Y107.265 E.02799
G1 X116.129 Y106.41 E.0274
G1 X116.034 Y105.544 E.02733
G1 X116.025 Y104.651 E.02798
G1 X116.104 Y103.759 E.02807
G1 X116.267 Y102.898 E.02749
G1 X116.52 Y102.039 E.02808
G1 X116.851 Y101.224 E.02756
G1 X117.177 Y100.588 E.02243
G1 X117.646 Y99.844 E.02756
G1 X118.032 Y99.347 E.01973
M204 S1000
G1 X118.329 Y99.578 F10800
M204 S800
G1 F1200
G1 X118.475 Y99.39 E.00746
G1 X119.066 Y98.768 E.02688
G1 X119.714 Y98.21 E.02681
G1 X120.419 Y97.716 E.02699
G1 X121.167 Y97.296 E.0269
G1 X121.953 Y96.953 E.0269
G1 X122.769 Y96.689 E.0269
G1 X123.608 Y96.508 E.0269
G1 X124.46 Y96.412 E.0269
G1 X125.318 Y96.401 E.02689
G1 X126.17 Y96.475 E.02681
G1 X126.991 Y96.629 E.02619
G1 X127.813 Y96.868 E.02683
G1 X128.59 Y97.18 E.02626
G1 X129.349 Y97.575 E.02684
G1 X130.049 Y98.032 E.02623
G1 X130.703 Y98.556 E.02626
G1 X131.314 Y99.154 E.0268
G1 X131.853 Y99.795 E.02627
G1 X132.325 Y100.485 E.02621
G1 X132.737 Y101.234 E.0268
G1 X133.067 Y102.005 E.02628
G1 X133.324 Y102.821 E.02684
G1 X133.497 Y103.638 E.02619
G1 X133.59 Y104.488 E.02681
G1 X133.599 Y105.326 E.02627
G1 X133.524 Y106.18 E.02687
G1 X133.364 Y107.023 E.0269
G1 X133.121 Y107.845 E.0269
G1 X132.803 Y108.626 E.02643
G1 X132.499 Y109.219 E.0209
G1 X132.051 Y109.933 E.02643
G1 X131.525 Y110.61 E.0269
G1 X130.934 Y111.232 E.0269
G1 X130.284 Y111.792 E.0269
G1 X129.581 Y112.284 E.0269
G1 X128.833 Y112.704 E.0269
G1 X128.047 Y113.047 E.0269
G1 X127.23 Y113.311 E.0269
G1 X126.392 Y113.492 E.0269
G1 X125.54 Y113.588 E.0269
G1 X124.682 Y113.599 E.02689
G1 X123.83 Y113.525 E.02682
G1 X123.008 Y113.371 E.02622
G1 X122.187 Y113.132 E.0268
G1 X121.409 Y112.82 E.02627
G1 X120.651 Y112.425 E.02683
G1 X119.951 Y111.968 E.0262
G1 X119.285 Y111.433 E.02676
G1 X118.687 Y110.847 E.02626
G1 X118.147 Y110.204 E.02633
G1 X117.675 Y109.515 E.0262
G1 X117.262 Y108.764 E.02687
G1 X116.933 Y107.994 E.02625
G1 X116.675 Y107.179 E.02682
G1 X116.503 Y106.359 E.02625
G1 X116.411 Y105.53 E.02618
G1 X116.401 Y104.675 E.02681
G1 X116.476 Y103.82 E.02689
G1 X116.636 Y102.977 E.0269
G1 X116.879 Y102.155 E.0269
G1 X117.197 Y101.374 E.02643
G1 X117.501 Y100.781 E.0209
G1 X117.949 Y100.067 E.02643
G1 X118.293 Y99.625 E.01755
M204 S1000
G1 X118.59 Y99.856 F10800
M204 S800
G1 F1200
G1 X118.756 Y99.642 E.00847
G1 X119.32 Y99.047 E.0257
G1 X119.939 Y98.513 E.02563
G1 X120.612 Y98.04 E.02581
G1 X121.327 Y97.637 E.02572
G1 X122.078 Y97.308 E.02572
G1 X122.859 Y97.056 E.02572
G1 X123.66 Y96.882 E.02572
G1 X124.475 Y96.789 E.02572
G1 X125.295 Y96.777 E.02571
G1 X126.11 Y96.847 E.02564
G1 X126.895 Y96.993 E.02503
G1 X127.681 Y97.221 E.02567
G1 X128.424 Y97.519 E.02509
G1 X129.151 Y97.896 E.02567
G1 X129.821 Y98.333 E.02508
G1 X130.446 Y98.833 E.0251
G1 X131.031 Y99.404 E.02562
G1 X131.558 Y100.031 E.02567
G1 X132.009 Y100.69 E.02505
G1 X132.402 Y101.407 E.02564
G1 X132.716 Y102.144 E.02511
G1 X132.962 Y102.925 E.02568
G1 X133.126 Y103.706 E.02503
G1 X133.214 Y104.52 E.02565
G1 X133.222 Y105.32 E.0251
G1 X133.149 Y106.137 E.0257
G1 X132.995 Y106.943 E.02572
G1 X132.762 Y107.729 E.02572
G1 X132.457 Y108.476 E.02529
G1 X132.175 Y109.026 E.01938
G1 X131.747 Y109.709 E.02529
G1 X131.244 Y110.358 E.02572
G1 X130.68 Y110.953 E.02572
G1 X130.059 Y111.489 E.02572
G1 X129.388 Y111.96 E.02572
