; generated by PrusaSlicer 2.4.0+win64 on 2022-02-11 at 12:49:46 UTC

; 

; external perimeters extrusion width = 0.60mm
; perimeters extrusion width = 0.50mm
; infill extrusion width = 0.50mm
; solid infill extrusion width = 0.50mm
; top infill extrusion width = 0.45mm
; first layer extrusion width = 0.42mm

M73 P0 R52
M73 Q0 S52
M201 X1000 Y1000 Z200 E5000 ; sets maximum accelerations, mm/sec^2
M203 X200 Y200 Z12 E120 ; sets maximum feedrates, mm/sec
M204 P1250 R1250 T1250 ; sets acceleration (P, T) and retract acceleration (R), mm/sec^2
M205 X8.00 Y8.00 Z0.40 E4.50 ; sets the jerk limits, mm/sec
M205 S0 T0 ; sets the minimum extruding and travel feed rate, mm/sec
M107
;TYPE:Custom
M862.3 P "MK3S" ; printer model check
M862.1 P0.4 ; nozzle diameter check
M115 U3.10.0 ; tell printer latest fw version
G90 ; use absolute coordinates
M83 ; extruder relative mode
M104 S215 ; set extruder temp
M140 S60 ; set bed temp
M190 S60 ; wait for bed temp
M109 S215 ; wait for extruder temp
G28 W ; home all without mesh bed level
G80 ; mesh bed leveling
G1 Z0.2 F720
G1 Y-3 F1000 ; go outside print area
G92 E0
G1 X60 E9 F1000 ; intro line
G1 X100 E12.5 F1000 ; intro line
G92 E0
M221 S95

; Don't change E values below. Excessive value can damage the printer.

M907 E538 ; set extruder motor current
G21 ; set units to millimeters
G90 ; use absolute coordinates
M83 ; use relative distances for extrusion
M900 K0.05 ; Filament gcode LA 1.5
M900 K30 ; Filament gcode LA 1.0
M107
;LAYER_CHANGE
;Z:0.2
;HEIGHT:0.2
;BEFORE_LAYER_CHANGE
G92 E0.0
;0.2


G1 E-.8 F2100
G1 Z.4 F720
;AFTER_LAYER_CHANGE
;0.2
G1 X114.964 Y96.496 F10800
G1 Z.2 F720
G1 E.8 F2100
M204 S800
;TYPE:Skirt/Brim
;WIDTH:0.42
G1 F1200
G1 X115.863 Y95.538 E.0412
G1 X116.848 Y94.676 E.04105
G1 X117.914 Y93.917 E.04103
G1 X118.943 Y93.323 E.03724
G1 X120.134 Y92.779 E.04107
G1 X121.377 Y92.355 E.04118
G1 X122.652 Y92.057 E.04106
G1 X123.954 Y91.887 E.04116
G1 X125.264 Y91.848 E.04109
G1 X126.575 Y91.941 E.04122
G1 X127.865 Y92.162 E.04103
G1 X129.127 Y92.51 E.04104
G1 X130.353 Y92.984 E.0412
G1 X131.521 Y93.576 E.04107
G1 X132.628 Y94.283 E.04117
G1 X133.656 Y95.095 E.04106
G1 X134.552 Y95.957 E.039
G1 X135.447 Y97.006 E.04325
G1 X136.192 Y98.089 E.04122
G1 X136.824 Y99.235 E.04103
G1 X137.314 Y100.375 E.0389
G1 X137.919 Y102.523 E.06996
G1 X138.095 Y103.756 E.03905
G1 X138.153 Y105.133 E.04322
G1 X138.082 Y106.373 E.03893
G1 X137.881 Y107.669 E.04112
G1 X137.551 Y108.938 E.04112
G1 X137.097 Y110.168 E.04111
G1 X136.522 Y111.347 E.04111
G1 X135.833 Y112.462 E.04112
G1 X135.036 Y113.504 E.04112
G1 X134.14 Y114.461 E.04111
G1 X133.152 Y115.324 E.04112
G1 X132.084 Y116.084 E.04111
G1 X130.945 Y116.734 E.04111
G1 X129.866 Y117.221 E.03713
G1 X128.625 Y117.645 E.04112
G1 X127.348 Y117.943 E.04111
G1 X126.047 Y118.112 E.04111
G1 X124.737 Y118.152 E.04112
G1 X123.425 Y118.059 E.04124
G1 X122.135 Y117.838 E.04103
G1 X120.873 Y117.49 E.04104
G1 X119.647 Y117.016 E.0412
G1 X118.479 Y116.424 E.04107
G1 X117.372 Y115.717 E.04117
G1 X116.344 Y114.905 E.04106
G1 X115.448 Y114.043 E.039
G1 X114.058 Y112.3 E.0699
G1 X113.417 Y111.234 E.039
G1 X112.829 Y109.988 E.04321
G1 X112.411 Y108.816 E.03902
G1 X112.094 Y107.545 E.04108
G1 X111.905 Y106.244 E.0412
G1 X111.847 Y104.868 E.0432
G1 X111.917 Y103.63 E.03888
G1 X112.119 Y102.331 E.04122
G1 X112.449 Y101.062 E.04109
G1 X112.904 Y99.831 E.04116
G1 X113.478 Y98.654 E.04106
G1 X114.168 Y97.537 E.04117
G1 X114.928 Y96.544 E.03919
M204 S1000
G1 X115.227 Y96.773 F10800
M204 S800
G1 F1200
G1 X116.126 Y95.807 E.04137
G1 X117.083 Y94.971 E.03987
G1 X118.119 Y94.234 E.03985
G1 X119.115 Y93.659 E.03606
G1 X120.272 Y93.13 E.03989
G1 X121.479 Y92.718 E.04
G1 X122.718 Y92.428 E.03988
G1 X123.982 Y92.263 E.03998
G1 X125.255 Y92.225 E.03991
G1 X126.528 Y92.315 E.04004
G1 X127.781 Y92.529 E.03985
G1 X129.007 Y92.867 E.03987
G1 X130.198 Y93.328 E.04002
G1 X131.333 Y93.903 E.03989
G1 X132.408 Y94.589 E.04
G1 X133.406 Y95.377 E.03988
G1 X134.282 Y96.22 E.03812
G1 X135.146 Y97.234 E.04177
G1 X135.871 Y98.286 E.04004
G1 X136.484 Y99.399 E.03985
G1 X136.963 Y100.513 E.03802
G1 X137.547 Y102.588 E.0676
G1 X137.72 Y103.793 E.03817
G1 X137.776 Y105.124 E.04175
G1 X137.707 Y106.335 E.03805
G1 X137.511 Y107.594 E.03994
G1 X137.191 Y108.827 E.03994
G1 X136.749 Y110.021 E.03994
G1 X136.191 Y111.166 E.03994
G1 X135.521 Y112.25 E.03994
G1 X134.747 Y113.261 E.03994
G1 X133.876 Y114.191 E.03994
G1 X132.917 Y115.029 E.03994
G1 X131.879 Y115.767 E.03994
G1 X130.773 Y116.399 E.03994
G1 X129.728 Y116.87 E.03595
G1 X128.523 Y117.282 E.03994
G1 X127.282 Y117.572 E.03994
G1 X126.019 Y117.736 E.03994
G1 X124.746 Y117.775 E.03994
G1 X123.472 Y117.685 E.04006
G1 X122.219 Y117.471 E.03985
G1 X120.993 Y117.133 E.03987
G1 X119.802 Y116.672 E.04003
G1 X118.667 Y116.097 E.03989
G1 X117.592 Y115.411 E.04
G1 X116.594 Y114.623 E.03988
G1 X115.718 Y113.78 E.03812
G1 X114.375 Y112.096 E.06754
G1 X113.748 Y111.054 E.03812
G1 X113.18 Y109.85 E.04174
G1 X112.772 Y108.704 E.03814
G1 X112.464 Y107.47 E.0399
G1 X112.28 Y106.207 E.04002
G1 X112.224 Y104.877 E.04172
G1 X112.293 Y103.667 E.038
G1 X112.489 Y102.406 E.04004
G1 X112.809 Y101.174 E.03991
G1 X113.251 Y99.978 E.03998
G1 X113.809 Y98.834 E.03988
G1 X114.48 Y97.749 E.04
G1 X115.19 Y96.821 E.03666
M204 S1000
;WIPE_START
G1 F8640
G1 X116.126 Y95.807 E-.31842
G1 X117.083 Y94.971 E-.29361
G1 X117.606 Y94.599 E-.14797
;WIPE_END
G1 E-.04 F2100
G1 Z.6 F720
G1 X117.264 Y98.504 F10800
G1 Z.2 F720
G1 E.8 F2100
M204 S800
G1 F1200
G1 X117.464 Y98.257 E.00998
G1 X118.071 Y97.635 E.02723
G1 X118.818 Y96.996 E.03082
G1 X119.643 Y96.422 E.03152
G1 X120.527 Y95.93 E.03172
G1 X121.453 Y95.529 E.03164
G1 X122.414 Y95.223 E.03162
G1 X123.402 Y95.014 E.03167
G1 X124.406 Y94.904 E.03168
G1 X125.408 Y94.895 E.03141
G1 X126.368 Y94.98 E.03023
G1 X127.332 Y95.159 E.03074
G1 X128.273 Y95.431 E.03071
G1 X129.187 Y95.794 E.03081
G1 X130.042 Y96.233 E.03016
G1 X130.867 Y96.763 E.03074
G1 X131.637 Y97.369 E.03073
G1 X132.346 Y98.049 E.03079
G1 X132.989 Y98.799 E.03097
G1 X133.556 Y99.609 E.031
G1 X134.041 Y100.467 E.03091
G1 X134.438 Y101.37 E.03093
G1 X134.715 Y102.194 E.02726
G1 X134.943 Y103.155 E.03096
G1 X135.078 Y104.156 E.03166
G1 X135.112 Y105.161 E.03154
G1 X135.046 Y106.166 E.03159
G1 X134.881 Y107.157 E.0315
G1 X134.617 Y108.13 E.0316
G1 X134.257 Y109.072 E.03161
G1 X133.806 Y109.973 E.03161
G1 X133.267 Y110.825 E.03161
G1 X132.645 Y111.62 E.03163
G1 X131.946 Y112.351 E.03172
G1 X131.179 Y113.006 E.03162
G1 X130.351 Y113.581 E.03161
G1 X129.47 Y114.072 E.03161
G1 X128.545 Y114.472 E.03161
G1 X127.584 Y114.777 E.03161
G1 X126.599 Y114.986 E.03159
G1 X125.6 Y115.095 E.03151
G1 X124.592 Y115.105 E.03161
G1 X123.61 Y115.017 E.03091
G1 X122.624 Y114.83 E.03146
G1 X121.681 Y114.553 E.03083
G1 X120.764 Y114.184 E.03097
G1 X119.876 Y113.719 E.03142
G1 X119.051 Y113.178 E.03094
G1 X118.27 Y112.549 E.03143
G1 X117.569 Y111.86 E.03083
G1 X116.937 Y111.104 E.03088
G1 X116.371 Y110.275 E.03149
G1 X115.899 Y109.411 E.03087
G1 X115.507 Y108.488 E.03143
G1 X115.213 Y107.547 E.03091
G1 X115.009 Y106.567 E.03141
G1 X114.904 Y105.585 E.03095
G1 X114.895 Y104.6 E.03087
G1 X114.982 Y103.613 E.03107
G1 X115.17 Y102.625 E.03155
G1 X115.45 Y101.673 E.03111
G1 X115.819 Y100.758 E.03094
G1 X116.286 Y99.867 E.03155
G1 X116.842 Y99.023 E.03166
G1 X117.226 Y98.55 E.0191
M204 S1000
G1 X117.518 Y98.788 F10800
M204 S800
G1 F1200
G1 X117.751 Y98.501 E.01159
G1 X118.322 Y97.916 E.02564
G1 X119.041 Y97.3 E.02968
G1 X119.835 Y96.747 E.03034
G1 X120.686 Y96.272 E.03054
G1 X121.577 Y95.885 E.03046
G1 X122.502 Y95.59 E.03044
G1 X123.453 Y95.388 E.03048
G1 X124.42 Y95.281 E.0305
G1 X125.384 Y95.271 E.03025
G1 X126.309 Y95.352 E.02909
G1 X127.237 Y95.524 E.0296
G1 X128.143 Y95.785 E.02956
G1 X129.023 Y96.134 E.02967
G1 X129.847 Y96.556 E.02902
G1 X130.642 Y97.065 E.0296
G1 X131.383 Y97.648 E.02958
G1 X132.066 Y98.302 E.02964
G1 X132.686 Y99.023 E.02981
G1 X133.232 Y99.802 E.02984
G1 X133.708 Y100.644 E.03032
G1 X134.09 Y101.514 E.02978
G1 X134.351 Y102.29 E.02567
G1 X134.571 Y103.215 E.02981
G1 X134.701 Y104.178 E.03049
G1 X134.735 Y105.146 E.03037
G1 X134.672 Y106.114 E.03041
G1 X134.514 Y107.068 E.03032
G1 X134.261 Y108.005 E.03042
G1 X133.916 Y108.912 E.03043
G1 X133.482 Y109.78 E.03043
G1 X132.964 Y110.601 E.03044
G1 X132.366 Y111.367 E.03045
G1 X131.693 Y112.071 E.03054
G1 X130.956 Y112.702 E.03044
G1 X130.159 Y113.257 E.03043
G1 X129.312 Y113.729 E.03043
G1 X128.421 Y114.115 E.03043
G1 X127.497 Y114.411 E.03043
G1 X126.548 Y114.612 E.03041
G1 X125.586 Y114.719 E.03034
G1 X124.616 Y114.729 E.03043
G1 X123.671 Y114.645 E.02975
G1 X122.721 Y114.466 E.0303
G1 X121.813 Y114.2 E.02968
G1 X120.93 Y113.845 E.02981
G1 X120.075 Y113.398 E.03026
G1 X119.28 Y112.879 E.02978
G1 X118.528 Y112.273 E.03027
G1 X117.852 Y111.611 E.02968
G1 X117.243 Y110.884 E.02972
G1 X116.697 Y110.085 E.03033
G1 X116.242 Y109.254 E.0297
G1 X115.864 Y108.366 E.03027
G1 X115.58 Y107.461 E.02974
G1 X115.383 Y106.517 E.03025
G1 X115.281 Y105.572 E.0298
G1 X115.271 Y104.624 E.02972
G1 X115.355 Y103.674 E.02991
G1 X115.534 Y102.722 E.03038
G1 X115.803 Y101.805 E.02994
G1 X116.166 Y100.908 E.03035
G1 X116.616 Y100.05 E.03037
G1 X117.151 Y99.239 E.03049
G1 X117.48 Y98.835 E.01634
M204 S1000
G1 X117.772 Y99.073 F10800
M204 S800
G1 F1200
G1 X118.038 Y98.746 E.01321
G1 X118.574 Y98.196 E.02407
G1 X119.265 Y97.604 E.02854
G1 X120.028 Y97.071 E.02917
G1 X120.845 Y96.614 E.02936
G1 X121.701 Y96.242 E.02928
G1 X122.59 Y95.957 E.02926
G1 X123.504 Y95.761 E.0293
G1 X124.433 Y95.658 E.02932
G1 X125.361 Y95.648 E.0291
G1 X126.249 Y95.725 E.02795
G1 X127.142 Y95.889 E.02845
G1 X128.013 Y96.139 E.02842
G1 X128.859 Y96.474 E.02853
G1 X129.651 Y96.879 E.02789
G1 X130.416 Y97.367 E.02846
G1 X131.129 Y97.927 E.02844
G1 X131.786 Y98.555 E.02848
G1 X132.394 Y99.262 E.02923
G1 X132.918 Y100.011 E.02867
G1 X133.374 Y100.821 E.02916
G1 X133.741 Y101.658 E.02864
G1 X133.986 Y102.386 E.02409
G1 X134.199 Y103.275 E.02867
G1 X134.325 Y104.201 E.02931
G1 X134.358 Y105.132 E.02919
G1 X134.299 Y106.062 E.02923
G1 X134.147 Y106.979 E.02915
G1 X133.905 Y107.88 E.02925
G1 X133.574 Y108.752 E.02925
G1 X133.158 Y109.587 E.02925
G1 X132.661 Y110.377 E.02926
G1 X132.087 Y111.113 E.02927
G1 X131.44 Y111.791 E.02936
G1 X130.732 Y112.398 E.02926
G1 X129.967 Y112.932 E.02925
G1 X129.153 Y113.387 E.02925
G1 X128.297 Y113.759 E.02925
G1 X127.408 Y114.044 E.02925
G1 X126.497 Y114.239 E.02923
G1 X125.572 Y114.342 E.02916
G1 X124.639 Y114.352 E.02926
G1 X123.731 Y114.273 E.02859
G1 X122.818 Y114.101 E.02913
G1 X121.944 Y113.846 E.02853
G1 X121.096 Y113.506 E.02865
G1 X120.273 Y113.078 E.0291
G1 X119.509 Y112.579 E.02861
G1 X118.785 Y111.997 E.02911
G1 X118.135 Y111.361 E.02853
G1 X117.549 Y110.663 E.02856
G1 X117.023 Y109.896 E.02917
G1 X116.586 Y109.098 E.02854
G1 X116.221 Y108.244 E.02911
G1 X115.947 Y107.374 E.02858
G1 X115.757 Y106.466 E.02909
G1 X115.658 Y105.558 E.02864
G1 X115.648 Y104.647 E.02856
G1 X115.727 Y103.734 E.02875
G1 X115.899 Y102.819 E.0292
G1 X116.162 Y101.921 E.02934
G1 X116.511 Y101.058 E.02917
G1 X116.945 Y100.235 E.02919
G1 X117.461 Y99.455 E.02931
G1 X117.734 Y99.119 E.01358
M204 S1000
G1 X118.026 Y99.357 F10800
M204 S800
G1 F1200
G1 X118.325 Y98.991 E.01483
G1 X118.826 Y98.477 E.02252
G1 X119.489 Y97.907 E.0274
G1 X120.22 Y97.395 E.02799
G1 X121.004 Y96.956 E.02818
G1 X121.826 Y96.598 E.0281
G1 X122.678 Y96.323 E.02808
G1 X123.555 Y96.135 E.02812
G1 X124.447 Y96.035 E.02815
G1 X125.338 Y96.024 E.02794
G1 X126.191 Y96.097 E.02682
G1 X127.047 Y96.254 E.02731
G1 X127.883 Y96.493 E.02727
G1 X128.696 Y96.814 E.02739
G1 X129.456 Y97.201 E.02675
G1 X130.191 Y97.67 E.02731
G1 X130.876 Y98.207 E.02729
G1 X131.507 Y98.808 E.02732
G1 X132.09 Y99.486 E.02805
G1 X132.604 Y100.219 E.02808
G1 X133.041 Y100.997 E.02798
G1 X133.392 Y101.801 E.0275
G1 X133.621 Y102.482 E.02254
G1 X133.826 Y103.336 E.02753
G1 X133.948 Y104.225 E.02813
G1 X133.981 Y105.117 E.02801
G1 X133.925 Y106.011 E.02806
G1 X133.781 Y106.891 E.02797
G1 X133.549 Y107.756 E.02807
G1 X133.232 Y108.593 E.02807
G1 X132.833 Y109.395 E.02807
G1 X132.357 Y110.153 E.02808
G1 X131.807 Y110.86 E.02809
G1 X131.187 Y111.511 E.02818
G1 X130.508 Y112.095 E.02808
G1 X129.774 Y112.608 E.02808
G1 X128.993 Y113.046 E.02807
G1 X128.172 Y113.403 E.02807
G1 X127.32 Y113.677 E.02807
G1 X126.445 Y113.865 E.02806
G1 X125.558 Y113.965 E.02799
G1 X124.662 Y113.976 E.02809
G1 X123.791 Y113.9 E.02742
G1 X122.914 Y113.736 E.02797
G1 X122.076 Y113.492 E.02737
G1 X121.261 Y113.167 E.02749
G1 X120.471 Y112.756 E.02794
G1 X119.737 Y112.279 E.02745
G1 X119.042 Y111.721 E.02795
G1 X118.417 Y111.111 E.02737
G1 X117.854 Y110.442 E.0274
G1 X117.349 Y109.706 E.02801
G1 X116.928 Y108.94 E.02738
G1 X116.578 Y108.121 E.02795
G1 X116.314 Y107.287 E.02742
G1 X116.13 Y106.416 E.02793
G1 X116.035 Y105.544 E.02749
G1 X116.024 Y104.671 E.0274
G1 X116.102 Y103.776 E.02816
G1 X116.267 Y102.898 E.02802
G1 X116.521 Y102.036 E.02816
G1 X116.857 Y101.209 E.028
G1 X117.274 Y100.419 E.02801
G1 X117.77 Y99.671 E.02813
G1 X117.988 Y99.404 E.01082
M204 S1000
G1 X118.279 Y99.642 F10800
M204 S800
G1 F1200
G1 X118.611 Y99.236 E.01645
G1 X119.079 Y98.757 E.02098
G1 X119.713 Y98.21 E.02627
G1 X120.414 Y97.719 E.02682
G1 X121.164 Y97.297 E.027
G1 X121.951 Y96.953 E.02692
G1 X122.767 Y96.69 E.0269
G1 X123.607 Y96.509 E.02694
G1 X124.462 Y96.412 E.02697
G1 X125.316 Y96.401 E.02677
G1 X126.149 Y96.472 E.02623
G1 X126.97 Y96.623 E.02616
G1 X127.771 Y96.853 E.02613
G1 X128.533 Y97.154 E.02569
G1 X129.277 Y97.533 E.02618
G1 X129.98 Y97.983 E.02617
G1 X130.636 Y98.497 E.02614
G1 X131.239 Y99.074 E.02617
G1 X131.798 Y99.724 E.02688
G1 X132.289 Y100.427 E.0269
G1 X132.707 Y101.173 E.0268
G1 X133.043 Y101.944 E.02636
G1 X133.257 Y102.579 E.021
G1 X133.454 Y103.397 E.02639
G1 X133.572 Y104.249 E.02695
G1 X133.604 Y105.104 E.02683
G1 X133.551 Y105.959 E.02688
G1 X133.414 Y106.803 E.0268
G1 X133.193 Y107.631 E.02689
G1 X132.89 Y108.434 E.02689
G1 X132.509 Y109.203 E.02689
G1 X132.053 Y109.929 E.0269
G1 X131.527 Y110.607 E.02691
G1 X130.934 Y111.232 E.027
G1 X130.284 Y111.792 E.0269
G1 X129.581 Y112.284 E.0269
G1 X128.833 Y112.704 E.02689
G1 X128.047 Y113.047 E.0269
G1 X127.231 Y113.311 E.02689
G1 X126.393 Y113.491 E.02688
G1 X125.543 Y113.588 E.02681
G1 X124.685 Y113.599 E.02692
G1 X123.85 Y113.528 E.02626
G1 X123.01 Y113.372 E.02681
G1 X122.206 Y113.139 E.02622
G1 X121.426 Y112.828 E.02633
G1 X120.668 Y112.435 E.02677
G1 X119.965 Y111.978 E.02629
G1 X119.298 Y111.445 E.02678
G1 X118.699 Y110.861 E.02622
G1 X118.16 Y110.221 E.02624
G1 X117.675 Y109.515 E.02684
G1 X117.271 Y108.783 E.02621
G1 X116.934 Y107.998 E.02679
G1 X116.681 Y107.2 E.02625
G1 X116.504 Y106.365 E.02676
G1 X116.411 Y105.53 E.02632
G1 X116.401 Y104.676 E.02681
G1 X116.477 Y103.819 E.02697
G1 X116.636 Y102.978 E.02684
G1 X116.88 Y102.152 E.02698
G1 X117.203 Y101.36 E.02682
G1 X117.603 Y100.604 E.02683
G1 X118.078 Y99.888 E.02695
G1 X118.241 Y99.689 E.00806
M204 S1000
G1 X118.532 Y99.927 F10800
M204 S800
G1 F1200
G1 X118.898 Y99.482 E.01807
G1 X119.331 Y99.037 E.01947
G1 X119.938 Y98.513 E.02514
G1 X120.607 Y98.043 E.02564
G1 X121.324 Y97.639 E.02582
G1 X122.076 Y97.309 E.02574
G1 X122.857 Y97.056 E.02572
G1 X123.66 Y96.882 E.02576
G1 X124.477 Y96.789 E.02579
G1 X125.293 Y96.777 E.0256
G1 X126.09 Y96.845 E.02508
G1 X126.875 Y96.989 E.02501
G1 X127.641 Y97.208 E.02498
G1 X128.386 Y97.501 E.02511
G1 X129.097 Y97.865 E.02502
G1 X129.769 Y98.295 E.02502
G1 X130.395 Y98.788 E.025
G1 X130.972 Y99.34 E.02502
M73 Q1 S52
G1 X131.505 Y99.962 E.02571
G1 X131.975 Y100.635 E.02572
G1 X132.373 Y101.349 E.02563
G1 X132.694 Y102.087 E.02523
G1 X132.892 Y102.676 E.01948
G1 X133.082 Y103.459 E.02525
G1 X133.196 Y104.273 E.02578
G1 X133.227 Y105.09 E.02566
M73 P1 R52
G1 X133.178 Y105.909 E.0257
G1 X133.047 Y106.715 E.02562
G1 X132.836 Y107.508 E.02571
G1 X132.548 Y108.275 E.02572
G1 X132.184 Y109.011 E.02572
G1 X131.749 Y109.706 E.02572
G1 X131.247 Y110.355 E.02573
G1 X130.68 Y110.952 E.02581
